static/fa/svgs/solid/dong-sign.svg

<svg xmlns="http://www.w3.org/2000/svg" viewBox="0 0 384 512"><!--! Font Awesome Free 6.1.1 by @fontawesome - https://fontawesome.com License - https://fontawesome.com/license/free (Icons: CC BY 4.0, Fonts: SIL OFL 1.1, Code: MIT License) Copyright 2022 Fonticons, Inc.--><path d="M320 64c17.7 0 32 14.33 32 32 0 17.7-14.3 32-32 32v256c0 17.7-14.3 32-32 32-13 0-24.1-7.7-29.2-18.8-19.4 11.9-42.3 18.8-66.8 18.8-70.7 0-128-57.3-128-128s57.3-128 128-128c23.3 0 45.2 6.2 64 17.1V128h-32c-17.7 0-32-14.3-32-32 0-17.67 14.3-32 32-32h32c0-17.67 14.3-32 32-32s32 14.33 32 32zm-64 224c0-35.3-28.7-64-64-64s-64 28.7-64 64 28.7 64 64 64 64-28.7 64-64zm96 160c17.7 0 32 14.3 32 32s-14.3 32-32 32H32c-17.67 0-32-14.3-32-32s14.33-32 32-32h320z"/></svg>

<svg xmlns="http://www.w3.org/2000/svg" viewBox="0 0 384 512"><!--! Font Awesome Free 6.1.1 by @fontawesome - https://fontawesome.com License - https://fontawesome.com/license/free (Icons: CC BY 4.0, Fonts: SIL OFL 1.1, Code: MIT License) Copyright 2022 Fonticons, Inc. --><path d="M320 64C337.7 64 352 78.33 352 96C352 113.7 337.7 128 320 128V384C320 401.7 305.7 416 288 416C275 416 263.9 408.3 258.8 397.2C239.4 409.1 216.5 416 192 416C121.3 416 64 358.7 64 288C64 217.3 121.3 160 192 160C215.3 160 237.2 166.2 256 177.1V128H224C206.3 128 192 113.7 192 96C192 78.33 206.3 64 224 64H256C256 46.33 270.3 32 288 32C305.7 32 320 46.33 320 64V64zM256 288C256 252.7 227.3 224 192 224C156.7 224 128 252.7 128 288C128 323.3 156.7 352 192 352C227.3 352 256 323.3 256 288zM352 448C369.7 448 384 462.3 384 480C384 497.7 369.7 512 352 512H32C14.33 512 0 497.7 0 480C0 462.3 14.33 448 32 448H352z"/></svg>
